X:1
T:Title
%%score { ( 1 3 ) | ( 2 4 ) }
L:1/8
Q:1/4=100
M:3/4
K:Eb
V:1 treble nm="Grand Piano"
V:3 treble 
V:2 bass 
V:4 bass 
V:1
 [B,EG]2 [CEA]2 [_DEB]2 | B2 z2 z2 | G2 z2 z2 | E2 D2 [B,DF]2 | [B,D]4 [Fd]2 | [Ec]4 z2 | %6
w: Hubert~P.~Main * *||||||
[M:2/4] [B,DB]4 |[M:1/4] G2 |[M:3/4] [EG]2 B2 [CA]2 | [B,G]4 E2 | E4 z2 | [B,EG]4 [B,EG]2 | %12
w: ||||||
 E2- [B,EG]2 [CEA]2 | B,2- [B,E]2[K:treble] F2 |[M:2/4] E4 |] %15
w: |||
V:2
 E,2 E,2 E,2 | z2 A2 B,,2 | C,4 [C,F,=A,]2 | [B,,F,B,]4 B,,2 | z2[K:treble] B2[K:bass] [B,,B,]2 | %5
 [E,G,]2 z2 [F,=A,]2 |[M:2/4] B,,4 |[M:1/4] E2 |[M:3/4] z2 D2 E,,2 | E,,4 [G,B,]2 | %10
 [A,C]2 G,2 F,2 | E,4 E,2 | A,,2 G,,2 F,,2 | z2 G,2 [B,,A,B,]2 |[M:2/4] [E,G,B,]4 |] %15
V:3
 x6 | [CE]4 [B,EG]2 | [=A,E]2- [A,EF]2 E2 | x6 | F2 z2 z2 | z2 [F,=A,]2 [Fd]2 |[M:2/4] x4 | %7
[M:1/4] x2 |[M:3/4] x6 | x6 | z2 B,2 [B,DA]2 | x6 | [CF]2 z2 z2 | [F,D]2 z2[K:treble] z2 | %14
[M:2/4] x4 |] %15
V:4
 x6 | A,,4 z2 | x6 | x6 | B,,4[K:treble][K:bass] z2 | x6 |[M:2/4] x4 |[M:1/4] x2 |[M:3/4] E,,4 z2 | %9
 x6 | x6 | x6 | x6 | B,,4 z2 |[M:2/4] x4 |] %15

